packages/core/src/svgs/orb.svg

<svg width="24" height="24" viewBox="0 0 24 24" fill="none" xmlns="http://www.w3.org/2000/svg">
<g clip-path="url(#clip0_31_15548)">
<path d="M0 0H24V24H0V0Z" fill="#F0F3FA"/>
<path d="M12.0002 18.8574C15.7873 18.8574 18.8574 15.7873 18.8574 12.0002C18.8574 8.21311 15.7873 5.14307 12.0002 5.14307C8.21311 5.14307 5.14307 8.21311 5.14307 12.0002C5.14307 15.7873 8.21311 18.8574 12.0002 18.8574Z" fill="#6E6E6E"/>
<path fill-rule="evenodd" clip-rule="evenodd" d="M8.05269 6.39452L7.90269 6.50166C8.21983 6.91309 8.56697 7.42309 8.47697 7.54737L8.43412 7.60737C8.28412 7.83023 8.0484 8.17737 7.09697 8.11309C6.8425 8.09414 6.58673 8.10276 6.33412 8.1388C5.95064 8.70006 5.65307 9.31541 5.45126 9.96452C5.8284 9.77166 6.3084 9.59595 6.77554 9.59595C7.76126 9.59595 8.18554 10.0245 8.03126 10.2645C7.87697 10.5045 7.23412 10.7574 6.77554 10.7702C6.38126 10.7874 5.57554 11.3188 5.14697 12.1631C5.14697 12.4288 5.17269 12.6902 5.20697 12.9517C5.30554 12.4417 5.54983 11.7859 6.08126 11.4902C6.9684 10.9888 8.07412 11.1174 8.47697 11.4902C8.87983 11.8588 9.35126 12.3817 9.28269 12.9902C9.26505 13.225 9.19316 13.4525 9.07269 13.6548C8.95221 13.857 8.78643 14.0286 8.5884 14.1559C8.26697 14.3574 7.90269 15.3817 7.98412 16.1274C8.02697 16.5688 8.0784 17.1902 8.11269 17.6488C8.37263 17.8288 8.6447 17.9906 8.92697 18.1331C8.60653 17.4609 8.4522 16.7216 8.47697 15.9774C8.5884 14.7259 9.26554 13.9117 9.52269 14.0359C9.58697 14.0659 9.68983 14.1645 9.82269 14.2931C10.217 14.6874 10.8941 15.3602 11.8113 15.3945C12.0384 15.4031 12.2441 15.4031 12.4284 15.4031C13.2298 15.4031 13.6413 15.4031 13.9627 16.1702C14.2547 16.861 14.5518 17.5496 14.8541 18.2359C15.0255 18.1588 15.2013 18.0645 15.3684 17.9745C15.1884 17.3874 14.897 16.4745 14.7513 16.1702C14.7085 16.083 14.6628 15.9972 14.6141 15.9131C14.4813 15.6645 14.4084 15.5402 14.5584 15.2445C14.6788 15.0176 14.8601 14.8288 15.0819 14.6993C15.3038 14.5698 15.5573 14.5048 15.8141 14.5117C16.4355 14.5117 16.8427 14.5245 17.3441 14.8245C17.5798 14.9617 17.7684 15.2359 17.9013 15.4931C18.4383 14.5872 18.7581 13.5691 18.8355 12.5188C18.7795 12.4314 18.7117 12.3521 18.6341 12.2831C18.3341 12.0302 18.4713 11.7474 18.8441 11.5545L18.8355 11.4388C18.6287 11.35 18.4318 11.2394 18.2484 11.1088C18.1327 11.0274 17.9998 10.9502 17.8713 10.8774C17.4598 10.6374 17.057 10.4059 17.1513 10.0545C17.2627 9.61737 17.387 9.30023 18.2441 9.16737C18.1841 9.03023 18.1155 8.89309 18.047 8.76023C17.8927 8.81595 17.6613 8.84595 17.3441 8.77737C16.8084 8.65737 16.1784 7.99309 15.9298 7.67595C15.591 7.41139 15.2391 7.16394 14.8755 6.93452C14.6184 6.7888 14.3655 6.06452 14.3184 5.54166L14.0784 5.46452C14.117 6.06452 14.0913 6.86595 13.7784 6.93452C13.2556 7.08446 12.6947 7.02129 12.2184 6.7588C11.867 6.56595 11.3613 6.44166 10.9541 6.34309C10.7329 6.30162 10.5182 6.23101 10.3155 6.13309C10.1398 6.00452 9.87412 5.81595 9.95983 5.45166C9.82269 5.49452 9.69412 5.53737 9.56126 5.5888C9.55269 5.81595 9.44554 6.07309 9.11554 6.28309C8.38697 6.73737 8.25412 6.60023 8.05697 6.39452H8.05269ZM11.9227 7.42737C11.8241 7.71452 11.2627 7.78737 10.6713 7.58595C10.0713 7.38452 9.67269 6.99023 9.77126 6.70309C9.86554 6.41595 10.427 6.34309 11.0184 6.54452C11.6184 6.74595 12.017 7.14023 11.9184 7.42737H11.9227ZM7.0284 8.79023C7.0284 8.92309 6.86554 9.03023 6.66412 9.03023C6.46269 9.03023 6.29983 8.92309 6.29983 8.79023C6.29983 8.66166 6.46269 8.55023 6.66412 8.55023C6.86554 8.55023 7.0284 8.65737 7.0284 8.79023ZM8.63126 9.39023C8.80269 9.56166 9.05983 9.58737 9.20983 9.44595C9.35126 9.30023 9.32983 9.0388 9.15412 8.86737C8.98269 8.69166 8.72554 8.66595 8.57554 8.81166C8.43412 8.95737 8.45554 9.21452 8.63126 9.39023ZM17.4555 11.3959C17.4013 11.4482 17.3286 11.4771 17.2532 11.4763C17.1779 11.4755 17.1058 11.4451 17.0527 11.3917C17.0253 11.3655 17.0033 11.3343 16.9881 11.2996C16.9728 11.265 16.9645 11.2277 16.9637 11.1899C16.9629 11.152 16.9696 11.1144 16.9834 11.0792C16.9972 11.0439 17.0178 11.0118 17.0441 10.9845C17.0711 10.958 17.103 10.937 17.1381 10.9229C17.1732 10.9087 17.2107 10.9016 17.2486 10.902C17.2864 10.9024 17.3238 10.9103 17.3586 10.9252C17.3934 10.9401 17.4249 10.9617 17.4513 10.9888C17.5627 11.1045 17.567 11.2888 17.4513 11.3959H17.4555ZM9.22697 10.5045L9.3984 10.2602C9.54412 10.0502 9.80554 9.95595 10.0541 10.0245C10.2984 10.0888 10.4784 10.3031 10.4913 10.5602L10.5127 10.9117C10.5199 11.1099 10.4779 11.3068 10.3904 11.4848C10.3029 11.6628 10.1726 11.8163 10.0113 11.9317C9.91697 11.9959 9.78412 12.0345 9.6684 12.0174H9.65554C9.51412 11.9917 9.39412 11.9102 9.32126 11.7902L9.19697 11.5974C9.09411 11.4324 9.0421 11.2408 9.04744 11.0464C9.05277 10.8521 9.11521 10.6636 9.22697 10.5045ZM13.3113 7.39737C12.8998 7.46166 12.4413 8.10023 12.2613 8.41309C12.2613 8.83309 12.4413 9.19737 13.1098 9.19737C13.7741 9.19737 14.1213 8.94023 14.1684 8.59737C14.2113 8.26309 13.8255 7.31595 13.3113 7.39737ZM14.4598 7.99737C14.4555 8.24166 14.4984 8.80309 14.7127 9.03452C14.9784 9.33023 15.8398 9.46309 16.1013 9.18023C16.3584 8.89309 16.2855 8.57166 15.887 8.20737L15.7198 8.05309C15.3727 7.72737 15.0213 7.39737 14.7898 7.56452C14.5755 7.72309 14.4813 7.91595 14.4598 7.99309V7.99737ZM11.3441 10.4702C11.2455 10.2045 11.5327 9.9388 11.6913 9.83595C11.7727 9.89595 11.9784 10.0759 12.1627 10.3202C12.3941 10.6202 12.0213 10.8174 11.8541 10.8345C11.6827 10.8517 11.4684 10.8002 11.3441 10.4702ZM16.1227 9.83595C15.9513 9.9388 15.6384 10.2045 15.7455 10.4702C15.8827 10.8002 16.1141 10.8559 16.2984 10.8345C16.4784 10.8174 16.8855 10.6202 16.637 10.3202C16.4355 10.0759 16.2084 9.89595 16.1227 9.83595ZM14.4813 9.64309C14.7598 9.68595 14.8455 10.0717 14.8541 10.2602C14.7641 10.3031 14.5027 10.3888 14.2027 10.4317C13.8213 10.4745 13.8384 10.0545 13.9113 9.90023C13.9798 9.74595 14.1341 9.58737 14.4813 9.64309ZM14.6398 12.0088C14.7513 11.9488 15.0427 11.8502 15.3084 11.9659C15.7252 12.2068 16.0907 12.5271 16.3841 12.9088C16.4913 13.1059 16.1441 13.9631 15.5484 14.0231C14.9484 14.0874 14.6827 13.8259 14.477 13.4231C14.2755 13.0245 13.9713 12.4117 14.6398 12.0088ZM17.8627 12.9731C17.6698 12.8145 17.3613 12.9645 17.2327 13.0588C17.147 13.1574 17.0013 13.4017 17.0698 13.6331C17.1598 13.9159 17.4127 14.2202 17.8627 14.5202C18.2141 14.7559 18.2613 14.4174 18.3084 14.0959C18.3213 14.0059 18.3341 13.9117 18.3513 13.8388C18.4413 13.4959 18.1027 13.1702 17.8627 12.9731ZM12.077 11.6745C12.3725 11.7659 12.656 11.8925 12.9213 12.0517C13.1998 12.2488 13.9627 13.0117 13.9627 13.8988C13.9627 14.7902 13.5641 14.9488 12.7284 14.9488C11.8884 14.9488 10.6413 13.9459 10.4784 13.5902C10.3875 13.3875 10.3668 13.1603 10.4196 12.9445C10.4724 12.7287 10.5956 12.5367 10.7698 12.3988C10.8513 12.3302 10.9241 12.2659 10.9927 12.1974C11.2927 11.9188 11.5498 11.6745 12.077 11.6745Z" fill="#EC9835"/>
<path d="M14.1129 7.48308C14.0058 7.47451 13.8086 7.4188 13.9115 7.25165L13.9715 7.15308C14.0829 6.97308 14.1858 6.79737 14.3143 6.83594C14.4686 6.88308 14.7258 7.28165 14.1129 7.48308ZM12.6129 7.17451C12.4929 7.12308 12.2915 7.0888 12.2058 7.08022C12.1201 7.19165 12.1843 7.39308 12.3086 7.59022C12.4201 7.76165 12.5658 7.61594 12.6858 7.50022L12.7372 7.44879C12.8658 7.33308 12.7586 7.23451 12.6086 7.17451H12.6129ZM9.5572 7.6588C9.38574 7.60367 9.20562 7.58043 9.02577 7.59022C8.87149 7.98879 9.15863 8.25451 9.36863 8.44737C9.42863 8.50308 9.48006 8.54594 9.51435 8.5888C9.68578 8.79451 9.87435 9.05165 9.87435 9.43737C9.87435 9.65165 9.97292 9.67737 10.1101 9.71594C10.2258 9.75022 10.3672 9.79308 10.4958 9.95165C10.7915 10.3031 10.9672 10.4317 11.1301 10.0888C11.2501 9.84451 11.5072 9.69022 11.7086 9.57022C11.7858 9.52308 11.8586 9.48022 11.9101 9.44165C12.0901 9.29165 11.9015 9.08594 11.7301 8.92737C11.5586 8.76451 11.6701 8.62737 11.8072 8.45594C11.9443 8.28451 11.4043 8.0188 10.8343 8.08737C10.4358 8.13022 10.1272 7.95879 9.87435 7.81308C9.77422 7.75089 9.66794 7.69918 9.5572 7.6588ZM7.94149 8.28451C7.64578 8.46879 7.32006 8.47737 7.19578 8.46022C6.87006 8.70022 7.76149 9.13737 8.13006 9.15451C8.33149 9.16308 8.36149 9.00879 8.39149 8.85451C8.4172 8.73022 8.44292 8.60594 8.55863 8.56308C8.81577 8.46879 8.88863 8.07022 8.7172 7.95022C8.58435 7.85594 8.40435 7.97594 8.15149 8.14308L7.9372 8.28451H7.94149ZM8.28435 9.36451C8.34006 9.49308 8.5072 9.75879 8.76863 9.81451C9.09863 9.88737 9.12863 9.99451 8.97435 10.1231C8.82006 10.2517 8.20292 10.1445 8.17292 9.89165V9.84879C8.14292 9.60022 8.10863 9.25737 8.28863 9.36451H8.28435ZM8.38292 10.4831C8.22863 10.4831 8.1472 10.6545 8.12577 10.7402C8.12577 10.8045 8.1472 10.9545 8.24149 11.0702C8.35292 11.2159 8.71292 11.2202 8.7772 11.1431C8.81149 11.1045 8.79006 11.0788 8.75577 11.0402C8.71153 10.9934 8.68048 10.9358 8.66577 10.8731C8.62292 10.7017 8.57577 10.4874 8.38292 10.4874V10.4831ZM9.86149 12.2402C9.77577 12.2231 9.57435 12.2145 9.4972 12.3131C9.39863 12.4417 9.58292 13.4445 9.78435 13.5131C9.93435 13.5645 10.0115 13.2217 10.0629 12.9988L10.1058 12.8274C10.1272 12.7845 10.1658 12.7502 10.2043 12.7117C10.2729 12.6474 10.3415 12.5788 10.3072 12.4888C10.2472 12.3517 10.0929 12.2402 9.86149 12.2402ZM11.1343 10.7145C11.0058 10.6545 10.8258 10.9888 10.8643 11.0317C10.8429 11.1217 10.7786 11.3359 10.6843 11.4688C10.5686 11.6359 10.7958 11.8245 10.9929 11.7431C11.1215 11.6959 11.4129 11.6017 11.6615 11.5288L11.9872 11.4217C12.2015 11.3531 11.8929 11.0317 11.7001 11.0317C11.5629 11.0317 11.4086 10.9117 11.2801 10.8174C11.2243 10.7745 11.1729 10.7317 11.1343 10.7145ZM12.3986 9.57022C12.4929 9.51451 12.7372 9.3988 12.9215 9.3988C13.1529 9.3988 13.6072 9.76737 13.5943 9.92594C13.5815 10.0802 13.5901 10.4488 13.7572 10.5688C13.9286 10.6845 14.6143 10.8517 14.7986 10.7102C14.8672 10.6545 14.9272 10.5645 14.9872 10.4831C15.0815 10.3502 15.1672 10.2259 15.2658 10.2602C15.3301 10.2817 15.3515 10.3802 15.3729 10.5002C15.4029 10.6759 15.4458 10.9031 15.6729 10.9974L16.1101 11.1902C16.3843 11.3188 16.6629 11.4474 16.8172 11.4817C16.9158 11.5074 17.0743 11.5117 17.2458 11.5159C17.5029 11.5245 17.7686 11.5288 17.8672 11.6102C17.9743 11.6959 18.0601 11.8674 18.1415 12.0345C18.1843 12.1202 18.2272 12.2059 18.2701 12.2745C18.4029 12.4888 18.4843 12.5574 18.6643 12.7031C18.8486 12.8574 18.8015 13.1874 18.6643 13.2988C18.5315 13.4102 18.4072 13.2988 18.1415 13.0502L18.1372 13.0417C17.8672 12.7931 17.6101 12.5574 17.1643 12.6302L17.1386 12.6345C16.7101 12.7074 16.6972 12.7074 16.5001 12.5317L16.4272 12.4631C16.1615 12.2102 15.5143 11.5974 14.9615 11.6831C14.5458 11.7474 14.2929 12.0902 14.1172 12.3174C14.0315 12.4288 13.9715 12.5145 13.9201 12.5317L13.8429 12.5617C13.7272 12.6045 13.6543 12.6388 13.5429 12.3559L13.5386 12.3388C13.4101 12.0174 13.4101 12.0045 13.0672 11.8074H13.0629C12.7115 11.6059 12.3986 11.4259 12.4458 11.1731C12.4672 11.0702 12.5315 11.0359 12.5915 11.0017C12.6901 10.9417 12.7843 10.8859 12.7072 10.6031C12.6643 10.4274 12.5786 10.3117 12.4972 10.2088C12.3686 10.0374 12.2658 9.90022 12.3986 9.56594V9.57022ZM15.3772 9.54022C15.2101 9.53165 14.8715 9.41165 14.7343 9.36022L14.6701 9.3388C14.4215 9.25308 14.8072 9.6988 14.9829 9.86165C15.1543 10.0202 15.4715 9.96022 15.6429 9.86165C15.8143 9.76308 15.5829 9.5488 15.3772 9.54022ZM16.7958 10.0031C16.7229 9.98165 16.5515 9.87451 16.4443 9.61308C16.3158 9.2788 16.3586 8.87594 16.5301 8.86737C16.7101 8.86308 16.9758 9.00879 17.1001 9.17594C17.2243 9.34737 16.9458 10.3245 16.8001 10.0031H16.7958ZM14.1301 14.4345C14.1772 14.1859 14.1601 13.7617 14.1558 13.7274C14.1558 13.6674 14.1858 13.5474 14.3143 13.5559C14.4129 13.5645 14.4901 13.7317 14.5801 13.9117C14.6315 14.0231 14.6829 14.1345 14.7515 14.2245C14.9015 14.4388 14.6958 14.5331 14.4943 14.6231L14.4429 14.6488C14.2286 14.7474 14.0829 14.6874 14.1301 14.4345ZM16.0929 13.9631C16.1358 13.9931 16.2729 13.9888 16.4701 13.7659C16.7229 13.4874 16.7829 13.5388 16.8429 13.6288L16.8858 13.6974C16.9843 13.8388 17.1686 14.1002 17.2029 14.2074C17.2415 14.3359 16.9029 14.3359 16.5515 14.3059L16.4186 14.2974C16.1186 14.2759 15.8829 14.2631 16.0929 13.9674V13.9631Z" fill="#FFED68"/>
<path d="M12.5657 5.38275C13.92 5.0399 15.72 6.0599 16.8043 7.03275C17.7471 8.01847 19.2214 10.2256 18.1586 10.9328C16.9971 11.7042 12.4157 8.9699 12.0814 7.37133C11.8071 6.09418 12.2914 5.51561 12.5657 5.38275Z" fill="url(#paint0_linear_31_15548)"/>
</g>
<defs>
<linearGradient id="paint0_linear_31_15548" x1="17.6014" y1="8.18133" x2="15.6171" y2="9.7199" gradientUnits="userSpaceOnUse">
<stop stop-color="white" stop-opacity="0.7"/>
<stop offset="1" stop-color="#A3A397" stop-opacity="0"/>
</linearGradient>
<clipPath id="clip0_31_15548">
<rect width="24" height="24" fill="white"/>
</clipPath>
</defs>
</svg>

<svg xmlns="http://www.w3.org/2000/svg" width="24" height="24" fill="none" viewBox="0 0 24 24"><g clip-path="url(#a)"><path fill="#F0F3FA" d="M0 0h24v24H0z"/><path fill="#6E6E6E" d="M12 18.857a6.857 6.857 0 1 0 0-13.714 6.857 6.857 0 0 0 0 13.714"/><path fill="#EC9835" fill-rule="evenodd" d="m8.053 6.395-.15.107c.317.411.664.921.574 1.045l-.043.06c-.15.223-.386.57-1.337.506a3.5 3.5 0 0 0-.763.026 6.8 6.8 0 0 0-.883 1.826c.377-.193.857-.369 1.325-.369.985 0 1.41.428 1.255.668-.154.24-.797.493-1.255.506-.395.017-1.2.549-1.629 1.393 0 .266.026.527.06.789.099-.51.343-1.166.874-1.462.887-.501 1.993-.373 2.396 0 .403.369.874.892.806 1.5a1.52 1.52 0 0 1-.695 1.166c-.321.201-.685 1.226-.604 1.971.043.442.094 1.063.129 1.522q.39.27.814.484a4.65 4.65 0 0 1-.45-2.156c.111-1.251.789-2.065 1.046-1.941.064.03.167.129.3.257.394.394 1.071 1.067 1.988 1.102q.34.01.617.008c.802 0 1.213 0 1.535.767q.438 1.037.891 2.066c.172-.077.347-.172.514-.262-.18-.587-.471-1.5-.617-1.804a4 4 0 0 0-.137-.257c-.133-.248-.206-.373-.056-.668a1.38 1.38 0 0 1 1.256-.733c.622 0 1.029.012 1.53.313.236.137.424.41.557.668a6.8 6.8 0 0 0 .934-2.974 1.1 1.1 0 0 0-.2-.236c-.3-.253-.164-.536.21-.728l-.01-.116a3 3 0 0 1-.587-.33 5 5 0 0 0-.377-.232c-.411-.24-.814-.471-.72-.822.112-.438.236-.755 1.093-.888a7 7 0 0 0-.197-.407c-.154.056-.386.086-.703.017-.536-.12-1.166-.784-1.414-1.101q-.508-.397-1.054-.741c-.258-.146-.51-.87-.558-1.393l-.24-.077c.039.6.013 1.401-.3 1.47a2.06 2.06 0 0 1-1.56-.176c-.351-.193-.857-.317-1.264-.416a2.6 2.6 0 0 1-.639-.21c-.175-.128-.44-.317-.355-.681a6 6 0 0 0-.399.137c-.008.227-.115.484-.445.694-.729.454-.862.317-1.059.112zm3.87 1.032c-.099.288-.66.36-1.252.159-.6-.201-.998-.596-.9-.883.095-.287.656-.36 1.247-.158.6.2.999.595.9.882zM7.028 8.79c0 .133-.162.24-.364.24S6.3 8.923 6.3 8.79c0-.128.163-.24.364-.24.202 0 .364.107.364.24m1.603.6c.172.172.429.197.579.056.141-.146.12-.407-.056-.579-.171-.175-.428-.201-.578-.055-.142.145-.12.403.055.578m8.825 2.006a.287.287 0 0 1-.403-.004.287.287 0 0 1-.009-.407.287.287 0 0 1 .407.004c.112.115.116.3 0 .407zm-8.229-.892.171-.244a.6.6 0 0 1 .656-.236.59.59 0 0 1 .437.536l.022.352a1.2 1.2 0 0 1-.502 1.02.5.5 0 0 1-.343.085h-.012a.5.5 0 0 1-.335-.227l-.124-.193a.99.99 0 0 1 .03-1.092m4.084-3.107c-.411.065-.87.703-1.05 1.016 0 .42.18.784.849.784.664 0 1.011-.257 1.058-.6.043-.334-.342-1.281-.857-1.2m1.149.6c-.005.245.038.806.253 1.038.265.295 1.127.428 1.388.145.257-.287.184-.608-.214-.973l-.167-.154c-.347-.326-.699-.656-.93-.488a.9.9 0 0 0-.33.428zm-3.116 2.473c-.098-.266.189-.531.347-.634.082.06.287.24.472.484.231.3-.142.497-.309.515-.171.017-.386-.035-.51-.365m4.779-.634c-.172.103-.485.368-.378.634.138.33.37.386.553.364.18-.017.588-.214.339-.514a3 3 0 0 0-.514-.484m-1.642-.193c.279.043.364.429.373.617-.09.043-.351.129-.651.172-.382.043-.365-.377-.292-.532.069-.154.223-.313.57-.257m.159 2.366c.111-.06.403-.159.668-.043.417.24.783.561 1.076.943.107.197-.24 1.054-.836 1.114-.6.064-.865-.197-1.071-.6-.202-.399-.506-1.011.163-1.414m3.223.964c-.193-.159-.502-.009-.63.086-.086.098-.232.343-.163.574.09.283.343.587.793.887.351.236.398-.103.445-.424.013-.09.026-.184.043-.257.09-.343-.248-.669-.488-.866m-5.786-1.299q.445.139.844.378c.279.197 1.042.96 1.042 1.847 0 .891-.399 1.05-1.235 1.05-.84 0-2.087-1.003-2.25-1.359a1 1 0 0 1 .292-1.191c.081-.069.154-.133.223-.202.3-.278.557-.522 1.084-.522" clip-rule="evenodd"/><path fill="#FFED68" d="M14.113 7.483c-.107-.008-.304-.064-.201-.231l.06-.099c.11-.18.214-.356.342-.317.155.047.412.446-.201.647m-1.5-.308a1.7 1.7 0 0 0-.407-.095c-.086.112-.022.313.103.51.111.172.257.026.377-.09l.051-.051c.129-.116.022-.214-.128-.274zm-3.056.484a1.5 1.5 0 0 0-.531-.069c-.155.399.133.665.343.857.06.056.111.099.145.142.172.206.36.463.36.848 0 .215.099.24.236.279a.7.7 0 0 1 .386.236c.295.351.471.48.634.137.12-.244.377-.399.579-.519.077-.047.15-.09.201-.128.18-.15-.008-.356-.18-.515-.171-.162-.06-.3.077-.471s-.403-.437-.973-.369c-.398.043-.707-.128-.96-.274a1.7 1.7 0 0 0-.317-.154m-1.616.626a1.23 1.23 0 0 1-.745.175c-.326.24.565.677.934.695.201.008.231-.146.261-.3.026-.125.052-.25.168-.292.257-.094.33-.493.158-.613-.133-.094-.313.026-.566.193l-.214.142zm.343 1.08c.056.128.223.394.485.45.33.072.36.18.205.308-.154.129-.771.022-.801-.231v-.043c-.03-.249-.064-.592.116-.484zm.099 1.118c-.154 0-.236.172-.257.257 0 .065.021.214.115.33.112.146.472.15.536.073.034-.039.013-.064-.021-.103a.36.36 0 0 1-.09-.167c-.043-.171-.09-.386-.283-.386zM9.86 12.24c-.085-.017-.287-.026-.364.073-.098.129.086 1.131.287 1.2.15.052.227-.291.279-.514l.043-.172c.021-.043.06-.077.098-.115.069-.065.137-.133.103-.223-.06-.137-.214-.249-.446-.249m1.273-1.526c-.128-.06-.308.275-.27.318-.021.09-.085.304-.18.437-.115.167.112.356.309.274.128-.047.42-.141.668-.214l.326-.107c.214-.069-.094-.39-.287-.39-.137 0-.291-.12-.42-.215-.056-.043-.107-.085-.146-.103M12.4 9.57c.094-.055.338-.171.523-.171.23 0 .685.368.672.527-.012.154-.004.523.163.643.172.115.857.283 1.042.141.068-.056.128-.146.188-.227.095-.133.18-.257.279-.223.064.022.085.12.107.24.03.176.073.403.3.497l.437.193c.274.129.553.257.707.292.099.025.257.03.429.034.257.008.523.013.621.094.107.086.193.257.274.425.043.085.086.17.13.24.132.214.213.282.393.428.185.154.137.484 0 .596-.133.111-.257 0-.523-.249l-.004-.008c-.27-.249-.527-.485-.973-.412l-.025.004c-.429.073-.442.073-.639-.102l-.073-.069c-.265-.253-.913-.866-1.466-.78-.415.064-.668.407-.844.634-.086.112-.146.197-.197.215l-.077.03c-.116.043-.189.077-.3-.206l-.004-.017c-.129-.322-.129-.335-.472-.532h-.004c-.352-.201-.664-.381-.617-.634.021-.103.085-.137.146-.171.098-.06.192-.116.115-.399a1 1 0 0 0-.21-.394c-.128-.172-.231-.309-.098-.643zm2.978-.03c-.167-.008-.506-.128-.643-.18l-.064-.021c-.248-.086.137.36.313.523.171.158.489.098.66 0 .171-.099-.06-.313-.266-.322m1.419.463c-.073-.021-.244-.128-.352-.39-.128-.334-.085-.737.086-.746.18-.004.446.142.57.309.124.171-.154 1.149-.3.827zm-2.666 4.432c.047-.25.03-.673.026-.708 0-.06.03-.18.158-.171.099.009.176.176.266.356.052.111.103.222.172.313.15.214-.056.308-.258.398l-.051.026c-.214.098-.36.038-.313-.214m1.963-.472c.043.03.18.026.377-.197.253-.279.313-.227.373-.137l.043.068c.098.142.283.403.317.51.038.129-.3.129-.651.099l-.133-.009c-.3-.021-.536-.034-.326-.33z"/><path fill="url(#b)" d="M12.566 5.383c1.354-.343 3.154.677 4.238 1.65.943.985 2.417 3.193 1.355 3.9-1.162.771-5.743-1.963-6.078-3.562-.274-1.277.21-1.855.485-1.988"/></g><defs><linearGradient id="b" x1="17.601" x2="15.617" y1="8.181" y2="9.72" gradientUnits="userSpaceOnUse"><stop stop-color="#fff" stop-opacity=".7"/><stop offset="1" stop-color="#A3A397" stop-opacity="0"/></linearGradient><clipPath id="a"><path fill="#fff" d="M0 0h24v24H0z"/></clipPath></defs></svg>
